X:17308
T: The Tunnel
C: Andy Anderson
M: 4/4
L: 1/8
Q: 1/4=120
K:G
dc|: B2 AG GABc|AGFG A2 dc|B2 AG GABc|A6 dc|
B2 AG GB d2|e3 A/2G/2 A2 c2|B/2 d2 B/2 d2 A3 \
|1 G/2 F G4 z/2 dc :|2 G/2 F G4 z3/2 d 
|: edef g2 fe |d2 de B3 d|edef gage| d6 z d |  
     edef g2 fe |d2 AA A2 c2|B/2 d2 B/2 d2 A3 \
|1 G/2 F3/2 G4 z d :|2 G/2 F3/2 G4 z2 ||
